TileServer und Tiles/svg/9/22_28.svg

<?xml version='1.0' encoding='UTF-8' standalone='no'?>
<svg xmlns="http://www.w3.org/2000/svg" width="497pt" viewBox="0 0 497 279" xmlns:xlink="http://www.w3.org/1999/xlink" height="279pt">
 <defs style="stroke:none;" overflow="visible">
  <path id="glyph0-8" d="M 4.015625 -5.359375 L 4.984375 -5.359375 L 2.6875 -2.78125 L 5.171875 0 L 4.15625 0 L 1.734375 -2.71875 L 1.734375 0 L 0.84375 0 L 0.84375 -5.359375 L 1.734375 -5.359375 L 1.734375 -2.765625 Z M 4.015625 -5.359375 "/>
  <path id="glyph0-7" d="M 3 0.09375 C 2.53125 0.09375 2.109375 0 1.734375 -0.1875 C 1.367188 -0.382812 1.078125 -0.6875 0.859375 -1.09375 C 0.648438 -1.5 0.546875 -2.019531 0.546875 -2.65625 C 0.546875 -3.3125 0.65625 -3.84375 0.875 -4.25 C 1.09375 -4.664062 1.390625 -4.96875 1.765625 -5.15625 C 2.148438 -5.351562 2.582031 -5.453125 3.0625 -5.453125 C 3.332031 -5.453125 3.59375 -5.425781 3.84375 -5.375 C 4.101562 -5.320312 4.3125 -5.253906 4.46875 -5.171875 L 4.203125 -4.4375 C 4.035156 -4.5 3.84375 -4.554688 3.625 -4.609375 C 3.414062 -4.660156 3.222656 -4.6875 3.046875 -4.6875 C 1.984375 -4.6875 1.453125 -4.007812 1.453125 -2.65625 C 1.453125 -2.007812 1.582031 -1.515625 1.84375 -1.171875 C 2.101562 -0.828125 2.484375 -0.65625 2.984375 -0.65625 C 3.285156 -0.65625 3.546875 -0.6875 3.765625 -0.75 C 3.984375 -0.8125 4.1875 -0.882812 4.375 -0.96875 L 4.375 -0.1875 C 4.195312 -0.09375 4 -0.0234375 3.78125 0.015625 C 3.5625 0.0664062 3.300781 0.09375 3 0.09375 Z M 3 0.09375 "/>
  <path id="glyph0-6" d="M 1.734375 -3.15625 L 3.3125 -3.15625 C 4.707031 -3.15625 5.40625 -2.648438 5.40625 -1.640625 C 5.40625 -1.140625 5.234375 -0.738281 4.890625 -0.4375 C 4.554688 -0.144531 4.019531 0 3.28125 0 L 0.84375 0 L 0.84375 -5.359375 L 1.734375 -5.359375 Z M 4.53125 -1.59375 C 4.53125 -1.914062 4.414062 -2.132812 4.1875 -2.25 C 3.957031 -2.375 3.632812 -2.4375 3.21875 -2.4375 L 1.734375 -2.4375 L 1.734375 -0.703125 L 3.234375 -0.703125 C 3.609375 -0.703125 3.914062 -0.769531 4.15625 -0.90625 C 4.40625 -1.039062 4.53125 -1.269531 4.53125 -1.59375 Z M 4.53125 -1.59375 "/>
  <path id="glyph0-5" d="M 3.40625 -5.453125 C 4.0625 -5.453125 4.585938 -5.222656 4.984375 -4.765625 C 5.390625 -4.304688 5.59375 -3.613281 5.59375 -2.6875 C 5.59375 -1.769531 5.390625 -1.078125 4.984375 -0.609375 C 4.585938 -0.140625 4.054688 0.09375 3.390625 0.09375 C 2.972656 0.09375 2.628906 0.015625 2.359375 -0.140625 C 2.085938 -0.296875 1.878906 -0.476562 1.734375 -0.6875 L 1.671875 -0.6875 C 1.679688 -0.570312 1.691406 -0.425781 1.703125 -0.25 C 1.722656 -0.0703125 1.734375 0.078125 1.734375 0.203125 L 1.734375 2.40625 L 0.84375 2.40625 L 0.84375 -5.359375 L 1.5625 -5.359375 L 1.6875 -4.625 L 1.734375 -4.625 C 1.890625 -4.863281 2.097656 -5.0625 2.359375 -5.21875 C 2.617188 -5.375 2.96875 -5.453125 3.40625 -5.453125 Z M 3.234375 -4.71875 C 2.691406 -4.71875 2.304688 -4.5625 2.078125 -4.25 C 1.859375 -3.945312 1.742188 -3.484375 1.734375 -2.859375 L 1.734375 -2.6875 C 1.734375 -2.03125 1.835938 -1.519531 2.046875 -1.15625 C 2.265625 -0.800781 2.671875 -0.625 3.265625 -0.625 C 3.585938 -0.625 3.851562 -0.710938 4.0625 -0.890625 C 4.269531 -1.078125 4.425781 -1.320312 4.53125 -1.625 C 4.632812 -1.9375 4.6875 -2.296875 4.6875 -2.703125 C 4.6875 -3.316406 4.566406 -3.804688 4.328125 -4.171875 C 4.097656 -4.535156 3.734375 -4.71875 3.234375 -4.71875 Z M 3.234375 -4.71875 "/>
  <path id="glyph0-4" d="M 0.5625 -3.21875 C 0.5625 -4.394531 0.738281 -5.3125 1.09375 -5.96875 C 1.445312 -6.625 2.019531 -7.035156 2.8125 -7.203125 C 3.238281 -7.296875 3.660156 -7.378906 4.078125 -7.453125 C 4.492188 -7.523438 4.878906 -7.59375 5.234375 -7.65625 L 5.390625 -6.875 C 5.160156 -6.84375 4.894531 -6.800781 4.59375 -6.75 C 4.300781 -6.707031 4.007812 -6.660156 3.71875 -6.609375 C 3.4375 -6.554688 3.191406 -6.503906 2.984375 -6.453125 C 2.554688 -6.359375 2.210938 -6.132812 1.953125 -5.78125 C 1.703125 -5.425781 1.5625 -4.875 1.53125 -4.125 L 1.59375 -4.125 C 1.6875 -4.25 1.8125 -4.375 1.96875 -4.5 C 2.132812 -4.632812 2.332031 -4.75 2.5625 -4.84375 C 2.789062 -4.9375 3.050781 -4.984375 3.34375 -4.984375 C 4.039062 -4.984375 4.566406 -4.757812 4.921875 -4.3125 C 5.273438 -3.875 5.453125 -3.296875 5.453125 -2.578125 C 5.453125 -1.984375 5.347656 -1.484375 5.140625 -1.078125 C 4.929688 -0.679688 4.644531 -0.382812 4.28125 -0.1875 C 3.914062 0 3.488281 0.09375 3 0.09375 C 2.257812 0.09375 1.664062 -0.1875 1.21875 -0.75 C 0.78125 -1.3125 0.5625 -2.132812 0.5625 -3.21875 Z M 3.0625 -0.625 C 3.5 -0.625 3.847656 -0.765625 4.109375 -1.046875 C 4.378906 -1.328125 4.515625 -1.804688 4.515625 -2.484375 C 4.515625 -3.035156 4.410156 -3.46875 4.203125 -3.78125 C 4.003906 -4.101562 3.671875 -4.265625 3.203125 -4.265625 C 2.910156 -4.265625 2.644531 -4.195312 2.40625 -4.0625 C 2.164062 -3.9375 1.960938 -3.789062 1.796875 -3.625 C 1.640625 -3.457031 1.53125 -3.316406 1.46875 -3.203125 C 1.46875 -2.867188 1.488281 -2.550781 1.53125 -2.25 C 1.582031 -1.945312 1.664062 -1.671875 1.78125 -1.421875 C 1.894531 -1.179688 2.054688 -0.988281 2.265625 -0.84375 C 2.484375 -0.695312 2.75 -0.625 3.0625 -0.625 Z M 3.0625 -0.625 "/>
  <path id="glyph0-3" d="M 1.1875 0 L 0.15625 0 L 1.6875 -2.25 C 1.476562 -2.300781 1.273438 -2.382812 1.078125 -2.5 C 0.890625 -2.625 0.734375 -2.789062 0.609375 -3 C 0.492188 -3.207031 0.4375 -3.46875 0.4375 -3.78125 C 0.4375 -4.289062 0.609375 -4.679688 0.953125 -4.953125 C 1.304688 -5.222656 1.769531 -5.359375 2.34375 -5.359375 L 4.734375 -5.359375 L 4.734375 0 L 3.859375 0 L 3.859375 -2.125 L 2.5625 -2.125 Z M 1.296875 -3.765625 C 1.296875 -3.460938 1.410156 -3.234375 1.640625 -3.078125 C 1.867188 -2.929688 2.1875 -2.859375 2.59375 -2.859375 L 3.859375 -2.859375 L 3.859375 -4.625 L 2.4375 -4.625 C 2.019531 -4.625 1.722656 -4.546875 1.546875 -4.390625 C 1.378906 -4.234375 1.296875 -4.023438 1.296875 -3.765625 Z M 1.296875 -3.765625 "/>
  <path id="glyph0-2" d="M 5.515625 -2.6875 C 5.515625 -1.800781 5.285156 -1.113281 4.828125 -0.625 C 4.378906 -0.144531 3.773438 0.09375 3.015625 0.09375 C 2.535156 0.09375 2.109375 -0.0078125 1.734375 -0.21875 C 1.367188 -0.4375 1.078125 -0.753906 0.859375 -1.171875 C 0.648438 -1.585938 0.546875 -2.09375 0.546875 -2.6875 C 0.546875 -3.570312 0.769531 -4.253906 1.21875 -4.734375 C 1.664062 -5.210938 2.273438 -5.453125 3.046875 -5.453125 C 3.523438 -5.453125 3.945312 -5.34375 4.3125 -5.125 C 4.6875 -4.914062 4.976562 -4.601562 5.1875 -4.1875 C 5.40625 -3.78125 5.515625 -3.28125 5.515625 -2.6875 Z M 1.453125 -2.6875 C 1.453125 -2.050781 1.578125 -1.546875 1.828125 -1.171875 C 2.078125 -0.804688 2.476562 -0.625 3.03125 -0.625 C 3.570312 -0.625 3.96875 -0.804688 4.21875 -1.171875 C 4.46875 -1.546875 4.59375 -2.050781 4.59375 -2.6875 C 4.59375 -3.320312 4.46875 -3.816406 4.21875 -4.171875 C 3.96875 -4.535156 3.566406 -4.71875 3.015625 -4.71875 C 2.472656 -4.71875 2.078125 -4.535156 1.828125 -4.171875 C 1.578125 -3.816406 1.453125 -3.320312 1.453125 -2.6875 Z M 1.453125 -2.6875 "/>
  <path id="glyph0-1" d="M 6.4375 0 L 5.53125 0 L 5.53125 -3.328125 L 1.875 -3.328125 L 1.875 0 L 0.96875 0 L 0.96875 -7.140625 L 1.875 -7.140625 L 1.875 -4.125 L 5.53125 -4.125 L 5.53125 -7.140625 L 6.4375 -7.140625 Z M 6.4375 0 "/>
  <path id="glyph0-0" d="M 0.9375 0 L 0.9375 -7.140625 L 5.046875 -7.140625 L 5.046875 0 Z M 1.453125 -0.515625 L 4.546875 -0.515625 L 4.546875 -6.625 L 1.453125 -6.625 Z M 1.453125 -0.515625 "/>
 </defs>
 <image width="497" xlink:href="svg/9/22_28.jpg" height="279"/>
 <g>
  <path d="M 312.539062 158.015625 L 311.632812 158.015625 L 311.632812 154.6875 L 307.976562 154.6875 L 307.976562 158.015625 L 307.070312 158.015625 L 307.070312 150.875 L 307.976562 150.875 L 307.976562 153.890625 L 311.632812 153.890625 L 311.632812 150.875 L 312.539062 150.875 Z M 312.539062 158.015625 " transform=" rotate(  340 330.771 155.016) " style="fill:none;stroke-width:3;stroke-linecap:butt;stroke-linejoin:round;stroke:rgb(100%,100%,100%);stroke-opacity:0.6;stroke-miterlimit:10;"/>
  <path d="M 319.027344 155.328125 C 319.027344 156.214844 318.796875 156.902344 318.339844 157.390625 C 317.890625 157.871094 317.285156 158.109375 316.527344 158.109375 C 316.046875 158.109375 315.621094 158.007812 315.246094 157.796875 C 314.878906 157.578125 314.589844 157.261719 314.371094 156.84375 C 314.160156 156.429688 314.058594 155.921875 314.058594 155.328125 C 314.058594 154.445312 314.28125 153.761719 314.730469 153.28125 C 315.175781 152.804688 315.785156 152.5625 316.558594 152.5625 C 317.035156 152.5625 317.457031 152.671875 317.824219 152.890625 C 318.199219 153.101562 318.488281 153.414062 318.699219 153.828125 C 318.917969 154.234375 319.027344 154.734375 319.027344 155.328125 Z M 314.964844 155.328125 C 314.964844 155.964844 315.089844 156.46875 315.339844 156.84375 C 315.589844 157.210938 315.988281 157.390625 316.542969 157.390625 C 317.082031 157.390625 317.480469 157.210938 317.730469 156.84375 C 317.980469 156.46875 318.105469 155.964844 318.105469 155.328125 C 318.105469 154.695312 317.980469 154.199219 317.730469 153.84375 C 317.480469 153.480469 317.078125 153.296875 316.527344 153.296875 C 315.984375 153.296875 315.589844 153.480469 315.339844 153.84375 C 315.089844 154.199219 314.964844 154.695312 314.964844 155.328125 Z M 314.964844 155.328125 " transform=" rotate(  340 330.771 155.016) " style="fill:none;stroke-width:3;stroke-linecap:butt;stroke-linejoin:round;stroke:rgb(100%,100%,100%);stroke-opacity:0.6;stroke-miterlimit:10;"/>
  <path d="M 320.75 158.015625 L 319.71875 158.015625 L 321.25 155.765625 C 321.039062 155.714844 320.835938 155.632812 320.640625 155.515625 C 320.453125 155.390625 320.296875 155.226562 320.171875 155.015625 C 320.054688 154.808594 320 154.546875 320 154.234375 C 320 153.726562 320.171875 153.335938 320.515625 153.0625 C 320.867188 152.792969 321.332031 152.65625 321.90625 152.65625 L 324.296875 152.65625 L 324.296875 158.015625 L 323.421875 158.015625 L 323.421875 155.890625 L 322.125 155.890625 Z M 320.859375 154.25 C 320.859375 154.554688 320.972656 154.78125 321.203125 154.9375 C 321.429688 155.085938 321.75 155.15625 322.15625 155.15625 L 323.421875 155.15625 L 323.421875 153.390625 L 322 153.390625 C 321.582031 153.390625 321.285156 153.46875 321.109375 153.625 C 320.941406 153.78125 320.859375 153.992188 320.859375 154.25 Z M 320.859375 154.25 " transform=" rotate(  340 330.771 155.016) " style="fill:none;stroke-width:3;stroke-linecap:butt;stroke-linejoin:round;stroke:rgb(100%,100%,100%);stroke-opacity:0.6;stroke-miterlimit:10;"/>
  <path d="M 325.714844 154.796875 C 325.714844 153.621094 325.890625 152.703125 326.246094 152.046875 C 326.597656 151.390625 327.171875 150.980469 327.964844 150.8125 C 328.390625 150.71875 328.8125 150.636719 329.230469 150.5625 C 329.644531 150.492188 330.03125 150.421875 330.386719 150.359375 L 330.542969 151.140625 C 330.3125 151.171875 330.046875 151.214844 329.746094 151.265625 C 329.453125 151.308594 329.160156 151.355469 328.871094 151.40625 C 328.589844 151.460938 328.34375 151.511719 328.136719 151.5625 C 327.707031 151.65625 327.363281 151.882812 327.105469 152.234375 C 326.855469 152.589844 326.714844 153.140625 326.683594 153.890625 L 326.746094 153.890625 C 326.839844 153.765625 326.964844 153.640625 327.121094 153.515625 C 327.285156 153.382812 327.484375 153.265625 327.714844 153.171875 C 327.941406 153.078125 328.203125 153.03125 328.496094 153.03125 C 329.191406 153.03125 329.71875 153.257812 330.074219 153.703125 C 330.425781 154.140625 330.605469 154.71875 330.605469 155.4375 C 330.605469 156.03125 330.5 156.53125 330.292969 156.9375 C 330.082031 157.335938 329.796875 157.632812 329.433594 157.828125 C 329.066406 158.015625 328.640625 158.109375 328.152344 158.109375 C 327.410156 158.109375 326.816406 157.828125 326.371094 157.265625 C 325.933594 156.703125 325.714844 155.882812 325.714844 154.796875 Z M 328.214844 157.390625 C 328.652344 157.390625 329 157.25 329.261719 156.96875 C 329.53125 156.6875 329.667969 156.210938 329.667969 155.53125 C 329.667969 154.980469 329.5625 154.546875 329.355469 154.234375 C 329.15625 153.914062 328.824219 153.75 328.355469 153.75 C 328.0625 153.75 327.796875 153.820312 327.558594 153.953125 C 327.316406 154.078125 327.113281 154.226562 326.949219 154.390625 C 326.792969 154.558594 326.683594 154.699219 326.621094 154.8125 C 326.621094 155.148438 326.640625 155.464844 326.683594 155.765625 C 326.734375 156.070312 326.816406 156.34375 326.933594 156.59375 C 327.046875 156.835938 327.207031 157.027344 327.417969 157.171875 C 327.636719 157.320312 327.902344 157.390625 328.214844 157.390625 Z M 328.214844 157.390625 " transform=" rotate(  340 330.771 155.016) " style="fill:none;stroke-width:3;stroke-linecap:butt;stroke-linejoin:round;stroke:rgb(100%,100%,100%);stroke-opacity:0.6;stroke-miterlimit:10;"/>
  <path d="M 334.546875 152.5625 C 335.203125 152.5625 335.726562 152.792969 336.125 153.25 C 336.53125 153.710938 336.734375 154.402344 336.734375 155.328125 C 336.734375 156.246094 336.53125 156.9375 336.125 157.40625 C 335.726562 157.875 335.195312 158.109375 334.53125 158.109375 C 334.113281 158.109375 333.769531 158.03125 333.5 157.875 C 333.226562 157.71875 333.019531 157.539062 332.875 157.328125 L 332.8125 157.328125 C 332.820312 157.445312 332.832031 157.589844 332.84375 157.765625 C 332.863281 157.945312 332.875 158.09375 332.875 158.21875 L 332.875 160.421875 L 331.984375 160.421875 L 331.984375 152.65625 L 332.703125 152.65625 L 332.828125 153.390625 L 332.875 153.390625 C 333.03125 153.152344 333.238281 152.953125 333.5 152.796875 C 333.757812 152.640625 334.109375 152.5625 334.546875 152.5625 Z M 334.375 153.296875 C 333.832031 153.296875 333.445312 153.453125 333.21875 153.765625 C 333 154.070312 332.882812 154.53125 332.875 155.15625 L 332.875 155.328125 C 332.875 155.984375 332.976562 156.496094 333.1875 156.859375 C 333.40625 157.214844 333.8125 157.390625 334.40625 157.390625 C 334.726562 157.390625 334.992188 157.304688 335.203125 157.125 C 335.410156 156.9375 335.566406 156.695312 335.671875 156.390625 C 335.773438 156.078125 335.828125 155.71875 335.828125 155.3125 C 335.828125 154.699219 335.707031 154.210938 335.46875 153.84375 C 335.238281 153.480469 334.875 153.296875 334.375 153.296875 Z M 334.375 153.296875 " transform=" rotate(  340 330.771 155.016) " style="fill:none;stroke-width:3;stroke-linecap:butt;stroke-linejoin:round;stroke:rgb(100%,100%,100%);stroke-opacity:0.6;stroke-miterlimit:10;"/>
  <path d="M 339.023438 154.859375 L 340.601562 154.859375 C 341.996094 154.859375 342.695312 155.367188 342.695312 156.375 C 342.695312 156.875 342.523438 157.277344 342.179688 157.578125 C 341.84375 157.871094 341.308594 158.015625 340.570312 158.015625 L 338.132812 158.015625 L 338.132812 152.65625 L 339.023438 152.65625 Z M 341.820312 156.421875 C 341.820312 156.101562 341.703125 155.882812 341.476562 155.765625 C 341.246094 155.640625 340.921875 155.578125 340.507812 155.578125 L 339.023438 155.578125 L 339.023438 157.3125 L 340.523438 157.3125 C 340.898438 157.3125 341.203125 157.246094 341.445312 157.109375 C 341.695312 156.976562 341.820312 156.746094 341.820312 156.421875 Z M 341.820312 156.421875 " transform=" rotate(  340 330.771 155.016) " style="fill:none;stroke-width:3;stroke-linecap:butt;stroke-linejoin:round;stroke:rgb(100%,100%,100%);stroke-opacity:0.6;stroke-miterlimit:10;"/>
  <path d="M 346.230469 158.109375 C 345.761719 158.109375 345.339844 158.015625 344.964844 157.828125 C 344.597656 157.632812 344.308594 157.328125 344.089844 156.921875 C 343.878906 156.515625 343.777344 155.996094 343.777344 155.359375 C 343.777344 154.703125 343.886719 154.171875 344.105469 153.765625 C 344.324219 153.351562 344.621094 153.046875 344.996094 152.859375 C 345.378906 152.664062 345.8125 152.5625 346.292969 152.5625 C 346.5625 152.5625 346.824219 152.589844 347.074219 152.640625 C 347.332031 152.695312 347.542969 152.761719 347.699219 152.84375 L 347.433594 153.578125 C 347.265625 153.515625 347.074219 153.460938 346.855469 153.40625 C 346.644531 153.355469 346.453125 153.328125 346.277344 153.328125 C 345.214844 153.328125 344.683594 154.007812 344.683594 155.359375 C 344.683594 156.007812 344.8125 156.5 345.074219 156.84375 C 345.332031 157.1875 345.714844 157.359375 346.214844 157.359375 C 346.515625 157.359375 346.777344 157.328125 346.996094 157.265625 C 347.214844 157.203125 347.417969 157.132812 347.605469 157.046875 L 347.605469 157.828125 C 347.425781 157.921875 347.230469 157.992188 347.011719 158.03125 C 346.792969 158.082031 346.53125 158.109375 346.230469 158.109375 Z M 346.230469 158.109375 " transform=" rotate(  340 330.771 155.016) " style="fill:none;stroke-width:3;stroke-linecap:butt;stroke-linejoin:round;stroke:rgb(100%,100%,100%);stroke-opacity:0.6;stroke-miterlimit:10;"/>
  <path d="M 352.046875 152.65625 L 353.015625 152.65625 L 350.71875 155.234375 L 353.203125 158.015625 L 352.1875 158.015625 L 349.765625 155.296875 L 349.765625 158.015625 L 348.875 158.015625 L 348.875 152.65625 L 349.765625 152.65625 L 349.765625 155.25 Z M 352.046875 152.65625 " transform=" rotate(  340 330.771 155.016) " style="fill:none;stroke-width:3;stroke-linecap:butt;stroke-linejoin:round;stroke:rgb(100%,100%,100%);stroke-opacity:0.6;stroke-miterlimit:10;"/>
  <g transform=" rotate(  340 330.771 155.016) " style="fill:rgb(13.333333%,13.333333%,13.333333%);fill-opacity:1;">
   <use xlink:href="#glyph0-1" y="158.016347" x="306.100994"/>
   <use xlink:href="#glyph0-2" y="158.016347" x="313.510994"/>
   <use xlink:href="#glyph0-3" y="158.016347" x="319.560994"/>
   <use xlink:href="#glyph0-4" y="158.016347" x="325.150994"/>
   <use xlink:href="#glyph0-5" y="158.016347" x="331.140994"/>
   <use xlink:href="#glyph0-6" y="158.016347" x="337.290994"/>
   <use xlink:href="#glyph0-7" y="158.016347" x="343.230994"/>
   <use xlink:href="#glyph0-8" y="158.016347" x="348.030994"/>
  </g>
 </g>
</svg>

<svg xmlns="http://www.w3.org/2000/svg" xmlns:xlink="http://www.w3.org/1999/xlink" viewBox="0 0 497 279"> <defs overflow="visible" style="stroke:none">  <path id="h" d="M4-5.4h1L2.7-2.8 5.2 0h-1L1.7-2.7V0H.8v-5.4h1v2.6Zm0 0"/>  <path id="g" d="M3 0c-.5 0-.9 0-1.3-.1-.3-.3-.6-.6-.7-.9-.4-.5-.5-1-.5-1.7 0-.6.2-1.1.5-1.5 0-.6.4-.8.8-1.1.2-.1.8-.2 1.2-.2l.8.1.7.2-.3.8-.6-.2H3c-1-.1-1.5.6-1.5 1.9 0 .7 0 1 .3 1.4.3.5.7.6 1.2.6h.8l.6-.3v.8a2 2 0 0 1-.6.2H3Zm0 0"/>  <path id="f" d="M1.7-3.2h1.6c1.4 0 2.1.6 2.1 1.6 0 .5-.2.9-.4 1.2-.4.3-1 .4-1.7.4H.8v-5.4h1Zm2.8 1.6c0-.3 0-.4-.3-.6-.2-.3-.6-.3-1-.3H1.7v1.8h1.5c.4 0 .8 0 1-.2.2-.1.3-.4.3-.7Zm0 0"/>  <path id="e" d="M3.4-5.5c.7 0 1.2.3 1.6.7.4.5.6 1.2.6 2.1 0 1-.2 1.7-.6 2-.4.7-1 .9-1.6.9-.4-.2-.8-.2-1-.3l-.7-.6v3.1H.8v-7.8h.8v.8h.2c.2-.4.3-.5.6-.6.2-.2.6-.3 1-.3Zm-.2.8c-.5 0-.9.1-1.1.5-.2.2-.4.7-.4 1.2v.3c0 .7.1 1.2.3 1.5.3.4.7.6 1.3.6.3 0 .6-.1.7-.4l.5-.6.2-1.1c0-.6-.1-1.1-.4-1.5-.2-.3-.6-.5-1-.5Zm0 0"/>  <path id="d" d="M.6-3.2C.6-4.4.7-5.3 1-6c.4-.6 1-1 1.8-1.2l1.3-.3c.4 0 .8 0 1.1-.2l.2.8-.8.2a31.4 31.4 0 0 0-1.6.2c-.4.1-.8.5-1 .7-.3.4-.4 1-.5 1.8l.5-.5c0-.1.3-.3.6-.3a2 2 0 0 1 .7-.2c.7 0 1.3.2 1.7.7.3.3.5 1 .5 1.7C5.5-2 5.3-1.5 5-1l-.7 1H3c-.7 0-1.3-.2-1.8-.7C.8-1.4.6-2.1.6-3.3ZM3-.6c.5 0 .8-.2 1-.4.4-.3.5-.8.5-1.5 0-.5 0-1-.3-1.3-.2-.2-.5-.5-1-.5l-.8.3-.6.4c-.2.1-.3.3-.3.4v1c0 .2.2.4.3.8 0 .2.2.4.5.6l.7.2Zm0 0"/>  <path id="c" d="M1.2 0h-1l1.5-2.3c-.2 0-.4 0-.7-.2A1.5 1.5 0 0 1 .6-3l-.2-.8c0-.5.2-.9.6-1.2.3-.2.8-.4 1.3-.4h2.4V0H4v-2.1H2.6Zm.1-3.8c0 .3.1.6.3.8.4.1.6.1 1 .1h1.3v-1.7H2.4c-.4 0-.7 0-.9.2l-.2.6Zm0 0"/>  <path id="b" d="M5.5-2.7c0 .9-.2 1.7-.7 2-.4.7-1 .9-1.8.9-.5-.2-.9-.2-1.3-.4-.3-.2-.6-.6-.7-1C.6-1.6.5-2 .5-2.7c0-.9.3-1.6.7-2 .5-.5 1-.8 1.8-.8.5 0 1 .2 1.3.5.4 0 .7.4.9.9.2.2.3.7.3 1.3Zm-4 0c0 .7 0 1.2.3 1.5.3.4.7.6 1.2.6.6 0 1-.2 1.2-.6.3-.3.4-.8.4-1.5s-.1-1.1-.4-1.5c-.2-.3-.6-.5-1.2-.5-.5 0-1 .2-1.2.5-.2.4-.3.9-.3 1.5Zm0 0"/>  <path id="a" d="M6.4 0h-.9v-3.3H2V0H.9v-7.1H2v3h3.5v-3h1Zm0 0"/>  <path d="M1 0v-7.1h4V0Zm.4-.5h3.1v-6.1h-3Zm.1 0"/> </defs> <image xlink:href="svg/9/22_28.jpg" width="497" height="279"/> <path d="M312.5 158h-.9v-3.3H308v3.3h-1v-7h1v2.9h3.6v-3h1Zm6.5-2.7c0 1-.2 1.7-.7 2-.3.7-1 .9-1.8.9-.5-.1-.9-.1-1.3-.4-.2-.2-.6-.5-.8-1-.2-.4-.4-.8-.4-1.5 0-.9.3-1.5.7-2 .5-.5 1-.7 1.9-.7.4 0 .9 0 1.2.3.4.1.7.5.9 1 .2.2.3.7.3 1.3Zm-4 0c0 .7 0 1.2.3 1.5.3.4.7.6 1.2.6.6 0 1-.2 1.2-.6.3-.3.4-.8.4-1.5 0-.6-.1-1.1-.4-1.5-.2-.3-.6-.5-1.2-.5-.5 0-1 .2-1.2.5-.2.4-.3.9-.3 1.5Zm5.8 2.7h-1l1.3-2.2-.5-.3a1.5 1.5 0 0 1-.4-.5l-.2-.8c0-.5.2-.9.5-1.1.5-.3.8-.4 1.5-.4h2.3v5.3h-.9v-2h-1.3Zm0-3.8c.1.5.2.6.5.8.1.1.5.2.9.2h1.2v-1.8H322c-.4 0-.7 0-.9.2-.1.2-.1.4-.1.7ZM325.7 154.8c0-1.2.3-2.1.5-2.8.4-.6 1-1 1.8-1.2l1.2-.2 1.2-.2.1.6-.8.3a31.4 31.4 0 0 0-1.6.3c-.4 0-.7.3-1 .6-.1.4-.4 1-.4 1.8l.4-.5.6-.3a2 2 0 0 1 .8-.2c.7 0 1.2.3 1.6.7.3.4.5 1 .5 1.7 0 .6-.1 1.1-.3 1.6-.3.3-.5.6-.9 1h-1.2c-.8.1-1.4-.2-1.8-.7-.5-.6-.7-1.4-.7-2.5Zm2.5 2.6c.5 0 .8-.2 1-.4.4-.3.6-.8.6-1.5-.1-.5-.2-1-.4-1.3-.2-.2-.6-.4-1-.4s-.6 0-.8.2c-.3 0-.6.2-.7.4l-.3.4v1l.4.8.4.6.8.2Zm6.3-4.8c.7 0 1.2.2 1.6.7.4.4.6 1 .6 2s-.2 1.7-.6 2.1c-.4.6-.9.7-1.6.7-.4 0-.7 0-1-.1l-.6-.7v3.1h-1v-7.7h.9v.7l.8-.6c.2-.2.5-.2.9-.2Zm-.1.7c-.6 0-1 .2-1.2.5-.2.2-.2.7-.2 1.4v.1c-.1.7-.1 1.2.2 1.7.2.2.6.4 1.2.4.3 0 .6-.1.8-.4l.5-.6.1-1c0-.8 0-1.3-.3-1.7-.3-.2-.6-.4-1.1-.4Zm4.6 1.6h1.6c1.4 0 2.1.5 2.1 1.5 0 .5-.2.9-.5 1.2-.4.3-.9.4-1.6.4H338v-5.3h1.1Zm2.8 1.5c0-.3-.1-.4-.3-.6-.3-.2-.6-.2-1-.2H339v1.7h1.5c.5 0 .7 0 1-.2.1-.1.2-.4.2-.7Zm4.4 1.7c-.4 0-.9 0-1.2-.3-.4-.2-.7-.5-1-.8l-.1-1.6c-.1-.7-.1-1.2.1-1.6.3-.4.6-.8 1-1l1.3-.1h.7l.7.1-.3.8-.4-.2h-.7c-1-.1-1.6.6-1.6 1.9 0 .7.1 1.2.3 1.5.3.4.7.6 1.2.6l.8-.1.6-.3v.8a2 2 0 0 1-.6.2l-.8.1Zm5.8-5.4h1l-2.3 2.5 2.5 2.8h-1l-2.4-2.7v2.7h-1v-5.3h1.1v2.6Zm0 0" style="fill:none;stroke-width:3;stroke-linecap:butt;stroke-linejoin:round;stroke:#fff;stroke-opacity:.6;stroke-miterlimit:10" transform=" rotate(  340 330.771 155.016) "/> <g style="fill:#222;fill-opacity:1" transform=" rotate(  340 330.771 155.016) ">  <use xlink:href="#a" x="306.1" y="158"/>  <use xlink:href="#b" x="313.5" y="158"/>  <use xlink:href="#c" x="319.6" y="158"/>  <use xlink:href="#d" x="325.2" y="158"/>  <use xlink:href="#e" x="331.1" y="158"/>  <use xlink:href="#f" x="337.3" y="158"/>  <use xlink:href="#g" x="343.2" y="158"/>  <use xlink:href="#h" x="348" y="158"/> </g></svg>
